X:36
T:Set of Quadrilles. AJH.036
M:2/4
L:1/8
Q:1/4=110
S:A.J.Hughes MS
N:An expert on the Quadrille would no doubt be able to verify the
N:redirection signs and give a better idea on how the tunes
N:are used for the dance.
O:England
A:North Shropshire
Z:Neil Brookes 2006
K:D
P:1
A|Af/g/ fe/f/|ed dc/d/|cB Bc/d/|fe AA|!
Af/g/ fg/f/|ed dc/d/|cB ed|1c/d/B/c/ A:|2dd “^Fine?”d||!
z|A2d/e/f/d/|A2d/e/f/d/|a/g/f/g/ ee|a/g/f/g/ ee|!
A2d/e/f/d/|A2d/e/f/g/|a/g/f/g/ ee|a/g/f/g/ e||!
A|Af/g/ fe/f/|ed dc/d/|cB Bd/e/|fe AA|!
Af/g/ fe/f/|eddc|cBec|ddd||!
K:G
g|gb ba/b/|ag gd|dc’ c’b/a/|^ga ad|!
dd’ d’c’/b/|ba ab/a/|ga/g/ f/g/a/b/|”^D.C.”a2g|]!
P:2nd
K:F
M:6/8
Q:3/8=120
a|a3 a^ga|a3 a^ga|g3 d2=B|cde fga|!
a3 a^ga|a3 a^ga|g2b cde|fca f2||!
c|cde fga|”_dcr written as cr”Hf3f2g|agf fed|a2g fed|!
cde fga|”cr”Hf3f2a|b3d2e|fcd “D.C.”efg|]!
P:3rd
K:G
M:2/4
Q:1/4=110
D|G3B|d3e|dcAe|dBGD|\
G3B|dd/d/ dg|\
“_f written as minim above 4 qu’s”\
[df4]BcA|[g3G3]”^fine”||!
agfe|fddg|efga|bggg|agfe|fddf|eB^ce|d3|]!
P:4th
K:C
Q:1/4=90
g/f/|efga|gc’c’g|gfda|gec g/f/|\
efga|gc’c’e|gfde|”D.C.”c3||
K:G
SG(3D/E/D/ G(3D/E/D/|G(3D/E/D/ G/>G/A/>B/|\
c(3A/B/A/ c(3A/B/A/|c(3A/B/A/ d/>c/B/>A/|!
G(3D/E/D/ G(3D/E/D/|G(3D/E/D/ G/>G/A/>B/|\
c(3A/B/A/ c(3A/B/A/|d/>c/B/>A/G2||!
dB/A/ GB/c/|d3e/f/|gf/g/ Bc/d/|e2d2|!
dB/A/ Ge/d/|de/f/ gf/e/|aA A/B/c/d/|e2Sd2||!
A>^G =G/F/E/D/|B>^A =A/G/F/E/|A>^G =G/F/E/D/|B>^A =A/G/F/E/|!
dB/A/ GB/c/|d^c/d/ fe/d/|ed/B/ dc/A/|”D.C.”A2G|]!
P:5th
K:F
M:6/8
Q:3/8=120
A|A3 A2A|A2A ABc|d3 c3|c2c c2A|\
c2B G3|G2G G2G|A2G F2a|gfe dcB||!
A3 A2A|A2A ABc|d3 c3|c2c c2A|\
c2B G3|G2G G2G|A2G F2c|BAG F2||!
f|G2G G2G|A2G F2C|C3 C2C|C3 C2f|\
G2G G2G|A2G F2A|A3 A^GE|A3A2A|!
G3 c3|c3 f3|fed dcB|Adc Adc|\
G3 c3|c3 f3|f2c cBG|F3 F2|]
